src/assets/images/audio.svg

<svg fill="none" height="19" viewBox="0 0 30 19" width="30" xmlns="http://www.w3.org/2000/svg"><g fill="#ededed"><path d="m5.25981 14.3155c-.53473 0-.97075-.4316-.97075-.9609v-5.17103c0-.52932.43602-.96091.97075-.96091.53474 0 .97075.43159.97075.96091v5.17103c-.00823.5293-.43601.9609-.97075.9609z"/><path d="m1.47466 11.7265c-.534739 0-.970754-.4316-.970754-.9609s.436015-.96091.970754-.96091c.53473 0 .97075.43161.97075.96091-.00823.5293-.43602.9609-.97075.9609z"/><path d="m28.0411 11.7265c-.5348 0-.9708-.4316-.9708-.9609s.436-.96091.9708-.96091c.5347 0 .9707.43161.9707.96091s-.436.9609-.9707.9609z"/><path d="m9.04106 18.7949c-.53473 0-.97075-.4316-.97075-.9609v-10.55375c0-.52932.43602-.96091.97075-.96091.53474 0 .97074.43159.97074.96091v10.55375c-.0082.5375-.436.9609-.97074.9609z"/><path d="m12.8301 16.4421c-.5347 0-.9707-.4316-.9707-.9609v-13.14333c0-.52932.436-.96092.9707-.96092.5348 0 .9708.4316.9708.96092v13.14333c0 .5293-.436.9609-.9708.9609z"/><path d="m16.6114 17.6466c-.5348 0-.9708-.4316-.9708-.9609v-15.724788c0-.529316.436-.960912.9708-.960912.5347 0 .9707.431596.9707.960912v15.732888c0 .5212-.436.9528-.9707.9528z"/><path d="m20.4747 14.8866c-.5348 0-.9708-.4316-.9708-.9609v-10.38276c0-.52931.436-.96091.9708-.96091.5347 0 .9707.4316.9707.96091v10.38276c0 .5374-.436.9609-.9707.9609z"/><path d="m24.2598 14.3155c-.5347 0-.9707-.4316-.9707-.9609v-5.17103c0-.52932.436-.96091.9707-.96091s.9708.43159.9708.96091v5.17103c0 .5293-.4361.9609-.9708.9609z"/></g></svg>

<svg width="30" height="19" viewBox="0 0 30 19" fill="none" xmlns="http://www.w3.org/2000/svg">
<path d="M5.25981 14.3155C4.72508 14.3155 4.28906 13.8839 4.28906 13.3546V8.18357C4.28906 7.65425 4.72508 7.22266 5.25981 7.22266C5.79455 7.22266 6.23056 7.65425 6.23056 8.18357V13.3546C6.22233 13.8839 5.79455 14.3155 5.25981 14.3155Z" fill="#EDEDED"/>
<path d="M1.47466 11.7265C0.939921 11.7265 0.503906 11.2949 0.503906 10.7656C0.503906 10.2363 0.939921 9.80469 1.47466 9.80469C2.00939 9.80469 2.44541 10.2363 2.44541 10.7656C2.43718 11.2949 2.00939 11.7265 1.47466 11.7265Z" fill="#EDEDED"/>
<path d="M28.0411 11.7265C27.5063 11.7265 27.0703 11.2949 27.0703 10.7656C27.0703 10.2363 27.5063 9.80469 28.0411 9.80469C28.5758 9.80469 29.0118 10.2363 29.0118 10.7656C29.0118 11.2949 28.5758 11.7265 28.0411 11.7265Z" fill="#EDEDED"/>
<path d="M9.04106 18.7949C8.50633 18.7949 8.07031 18.3633 8.07031 17.834V7.28025C8.07031 6.75093 8.50633 6.31934 9.04106 6.31934C9.5758 6.31934 10.0118 6.75093 10.0118 7.28025V17.834C10.0036 18.3715 9.5758 18.7949 9.04106 18.7949Z" fill="#EDEDED"/>
<path d="M12.8301 16.4421C12.2954 16.4421 11.8594 16.0105 11.8594 15.4812V2.33787C11.8594 1.80855 12.2954 1.37695 12.8301 1.37695C13.3649 1.37695 13.8009 1.80855 13.8009 2.33787V15.4812C13.8009 16.0105 13.3649 16.4421 12.8301 16.4421Z" fill="#EDEDED"/>
<path d="M16.6114 17.6466C16.0766 17.6466 15.6406 17.215 15.6406 16.6857V0.960912C15.6406 0.431596 16.0766 0 16.6114 0C17.1461 0 17.5821 0.431596 17.5821 0.960912V16.6938C17.5821 17.215 17.1461 17.6466 16.6114 17.6466Z" fill="#EDEDED"/>
<path d="M20.4747 14.8866C19.9399 14.8866 19.5039 14.455 19.5039 13.9257V3.54294C19.5039 3.01363 19.9399 2.58203 20.4747 2.58203C21.0094 2.58203 21.4454 3.01363 21.4454 3.54294V13.9257C21.4454 14.4631 21.0094 14.8866 20.4747 14.8866Z" fill="#EDEDED"/>
<path d="M24.2598 14.3155C23.7251 14.3155 23.2891 13.8839 23.2891 13.3546V8.18357C23.2891 7.65425 23.7251 7.22266 24.2598 7.22266C24.7945 7.22266 25.2306 7.65425 25.2306 8.18357V13.3546C25.2306 13.8839 24.7945 14.3155 24.2598 14.3155Z" fill="#EDEDED"/>
</svg>
